!!!COM: Mendelssohn, Felix
!!!CDT: 1809/02/03-1847/11/04
!!!OPR: Sechs vierstimmige Lieder
!!!OTL: Der wandernde Musikant
!!!OPS: Op. 88
!!!ONM: Nr. 6
!!!OMD: Allegro
**kern	**text	**text	**text	**dynam	**kern	**text	**text	**text	**dynam	**kern	**text	**text	**text	**dynam	**kern	**text	**text	**text	**dynam
*part4	*part4	*part4	*part4	*part4	*part3	*part3	*part3	*part3	*part3	*part2	*part2	*part2	*part2	*part2	*part1	*part1	*part1	*part1	*part1
*staff4	*staff4	*staff4	*staff4	*	*staff3	*staff3	*staff3	*staff3	*	*staff2	*staff2	*staff2	*staff2	*	*staff1	*staff1	*staff1	*staff1	*
*I"B	*	*	*	*	*I"T	*	*	*	*	*I"A	*	*	*	*	*I"S	*	*	*	*
*clefF4	*	*	*	*	*clefGv2	*	*	*	*	*clefG2	*	*	*	*	*clefG2	*	*	*	*
*k[b-e-a-]	*	*	*	*	*k[b-e-a-]	*	*	*	*	*k[b-e-a-]	*	*	*	*	*k[b-e-a-]	*	*	*	*
*M6/8	*	*	*	*	*M6/8	*	*	*	*	*M6/8	*	*	*	*	*M6/8	*	*	*	*
=1	=1	=1	=1	=1	=1	=1	=1	=1	=1	=1	=1	=1	=1	=1	=1	=1	=1	=1	=1
8E-	1.Durch	2.Die	3.Vom	f	8G	1.Durch	2.Die	3.Vom	f	8e-	1.Durch	2.Die	3.Vom	f	8b-	1.Durch	2.Die	3.Vom	f
=	=	=	=	=	=	=	=	=	=	=	=	=	=	=	=	=	=	=	=
4E-	Feld	Lerch’	Ber-	.	4E-	Feld	Lerch’	Ber-	.	4e-	Feld	Lerch’	Ber-	.	4g	Feld	Lerch’	Ber-	.
8E-	und	als	-ge	.	8G	und	als	-ge	.	8e-	und	als	-ge	.	8b-	und	als	-ge	.
4E-	Bu-	Mor-	Vög-	.	(8B-L	Bu-	Mor-	Vög-	.	(8b-L	Bu-	Mor-	Vög-	.	(8ee-L	Bu-	Mor-	Vög-	.
.	.	.	.	.	8GJ)	.	.	.	.	8gJ)	.	.	.	.	8b-J)	.	.	.	.
8E-	-chen-	-gen-	-lein	.	8e-	-chen-	-gen-	-lein	.	8ee-	-chen-	-gen-	-lein	.	8gg	-chen-	-gen-	-lein	.
=	=	=	=	=	=	=	=	=	=	=	=	=	=	=	=	=	=	=	=
4.E-	-hal-	-bo-	flie-	.	4.e-	-hal-	-bo-	flie-	.	4.b-	-hal-	-bo-	flie-	.	4.gg	-hal-	-bo-	flie-	.
4E-	-len	-te	-gen	.	4B-	-len	-te	-gen	.	4g	-len	-te	-gen	.	4ee-	-len	-te	-gen	.
8E-	bald	sich	und	.	8c	bald	sich	und	.	8a-	bald	sich	und	.	8ee-	bald	sich	und	.
=	=	=	=	=	=	=	=	=	=	=	=	=	=	=	=	=	=	=	=
4G	sin-	durch	Wol-	.	4d-X	sin-	durch	Wol-	.	4b-	sin-	durch	Wol-	.	4ee-	sin-	durch	Wol-	.
8G	-gend	die	-ken	.	8d-	-gend	die	-ken	.	8e-	-gend	die	-ken	.	8b-	-gend	die	-ken	.
4G	und	Lüf-	so	.	4d-	und	Lüf-	so	.	4e-	und	Lüf-	so	.	4b-	und	Lüf-	so	.
8G	bald	-te	ge-	.	8d-	bald	-te	ge-	.	8e-	bald	-te	ge-	.	8bn	bald	-te	ge-	.
=	=	=	=	=	=	=	=	=	=	=	=	=	=	=	=	=	=	=	=
4.A-	still,	schingt,	-schwind,	.	4.c	still,	schingt,	-schwind,	.	4.e-	still,	schwingt,	-schwind,	.	[4.cc	still,	schwingt,	-schwind,	.
4.A-	recht	ein’	Ge-	p	4r	.	.	.	.	4.d	recht	ein’	Ge	p	8cc]	.	.	.	.
.	.	.	.	.	.	.	.	.	.	.	.	.	.	.	8r	.	.	.	.
.	.	.	.	.	8r	.	.	.	.	.	.	.	.	.	8b-	recht	ein’	Ge-	p
=	=	=	=	=	=	=	=	=	=	=	=	=	=	=	=	=	=	=	=
4.G	fröh-	fri-	-dan-	.	4r	.	.	.	.	[4.e-	fröh-	fri-	dan-	.	4ee-	fröh-	fri-	-dan-	.
.	.	.	.	.	8r	.	.	.	.	.	.	.	.	.	8b-	-lich	-sche	-ken	.
4.F	-lich	-sche	-ken	.	4r	.	.	.	.	4e-]	.	.	.	.	4a-	sei	Rei-	ü-	.
.	.	.	.	.	8B-	recht	ein’	Ge-	p	8d	-lich	-sche	-ken	.	8b-	vor	-se-	-ber-	.
=	=	=	=	=	=	=	=	=	=	=	=	=	=	=	=	=	=	=	=
4.E-	sei	Rei-	ü-	.	4e-	fröh-	fri-	-dan-	.	4.e-	sei	Rei-	ü-	.	4.g	al-	-no-	-flie-	.
.	.	.	.	.	8B-	-lich	-sche	-ken	.	.	.	.	.	.	.	.	.	.	.
4.BB-	vor	-se-	-ber-	.	4A-	sei	Rei-	ü-	.	4.d	vor	-se-	-ber-	.	4f	-len,	-te	-gen	.
.	.	.	.	.	8B-	vor	-se-	-ber-	.	.	.	.	.	.	8b-	wer’s	durch	die	.
=	=	=	=	=	=	=	=	=	=	=	=	=	=	=	=	=	=	=	=
4.BB-	al-	-no-	-flie-	.	4.G	al-	-no-	-flie-	.	4.e-	al-	-no-	-flie-	.	4ee-	Rei-	Wald	Vö-	.
.	.	.	.	.	.	.	.	.	.	.	.	.	.	.	8b-	-sen	und	-gel	.
8BB-	-len,	-te	-gen	.	4F	-len,	-te	-gen	.	4d	-len,	-te	-gen	.	4a-	wäh-	Herz	und	.
8r	.	.	.	.	.	.	.	.	.	.	.	.	.	.	.	.	.	.	.
8BB-	recht	ein’	Ge-	.	8B-	recht	ein’	Ge-	.	8d	recht	ein’	Ge-	.	8b-	-len	er-	den	.
=	=	=	=	=	=	=	=	=	=	=	=	=	=	=	=	=	=	=	=
4E-	fröh-	fri-	-dan-	.	(8B-L	fröh-	fri-	-dan-	.	4e-	fröh-	fri-	-dan-	.	4.g	will,	-klingt,	Wind,	.
.	.	.	.	.	8GJ)	.	.	.	.	.	.	.	.	.	.	.	.	.	.
8F	-lich	-sche	-ken	<	8A-	-lich	-sche	-ken	<	8e-	-lich	-sche	-ken	<	.	.	.	.	.
(8GL	-sei	Rei-	ü-	.	(8B-L	-sei	Rei-	ü-	.	4e-	sei	Rei-	ü-	.	4r	.	.	.	.
8A-J)	.	.	.	.	8cJ)	.	.	.	.	.	.	.	.	.	.	.	.	.	.
8B-	vor	-se-	-ber-	.	8d	vor	-se-	-ber-	.	8g	vor	-se-	-ber-	.	8g	recht	ein’	Ge-	<
=	=	=	=	=	=	=	=	=	=	=	=	=	=	=	=	=	=	=	=
[2.c	al-	-no-	-flie-	f	[2.e-	al-	-no-	-flie-	f	(2.g	al-	-no-	-flie-	f	(8gL	fröh-	fri-	-dan-	f
.	.	.	.	.	.	.	.	.	.	.	.	.	.	.	8anJ)	.	.	.	.
.	.	.	.	.	.	.	.	.	.	.	.	.	.	.	8bn	-lich	-sche	-ken	.
.	.	.	.	.	.	.	.	.	.	.	.	.	.	.	(8ccL	-sei	Rei-	ü-	.
.	.	.	.	.	.	.	.	.	.	.	.	.	.	.	8ddJ)	.	.	.	.
.	.	.	.	.	.	.	.	.	.	.	.	.	.	.	8ee-	vor	-se-	-ber-	.
=	=	=	=	=	=	=	=	=	=	=	=	=	=	=	=	=	=	=	=
4.c]	.	.	.	.	4.e-]	.	.	.	.	4.an)	.	.	.	.	4.gg	al-	-no-	-flie-	.
[4.d	-len,	-te	-gen	.	[4.f	-len,	-te	-gen	.	[4.b-	-len,	-te	-gen	.	4ff	-len,	-te	-gen	.
.	.	.	.	.	.	.	.	.	.	.	.	.	.	.	8ee-	wer’s	durch	die	.
=	=	=	=	=	=	=	=	=	=	=	=	=	=	=	=	=	=	=	=
8d]	.	.	.	.	8f]	.	.	.	.	8b-]	.	.	.	.	4dd	Rei-	Wald	Vö-	.
8r	.	.	.	.	8r	.	.	.	.	8r	.	.	.	.	.	.	.	.	.
8r	.	.	.	.	8r	.	.	.	.	8r	.	.	.	.	8cc	-sen	und	-gel	.
4.D	wer’s	durch	die	p	(4d	wer’s	durch	die	p	4.f#X	wer’s	durch	die	p	4b-	wäh-	Herz	und	.
.	.	.	.	.	8c)	.	.	.	.	.	.	.	.	.	8an	-len	er-	den	.
=	=	=	=	=	=	=	=	=	=	=	=	=	=	=	=	=	=	=	=
4.E-	Rei-	-Wald	Vö-	.	[4.B-	Rei-	-Wald	Vö	.	4g	Rei-	Wald	Vö-	.	4.g	will,	-klingt,	Wind,	.
.	.	.	.	.	.	.	.	.	.	8fn	-sen	und	-gel	.	.	.	.	.	.
4.G	-sen	und	-gel	.	4B-]	.	.	.	.	4e-	wäh-	Herz,	und	.	4r	.	.	.	.
.	.	.	.	.	8B-	-sen	und	-gel	.	8d	-len,	und	den	.	8b-	wer’s	durch	die	p
=	=	=	=	=	=	=	=	=	=	=	=	=	=	=	=	=	=	=	=
4.F	wäh-	Herz	Wind,	.	(4d	wäh-	Herz	Wind,	.	4.f	wäh-	Herz	Wind,	.	4b-	Rei-	Wald	Vö-	.
.	.	.	.	.	8c)	.	.	.	.	.	.	.	.	.	8an	-sen	und	-gel	.
4.F	-len	er-	den	.	(4f	-len	er-	den	.	4.an	-len	er-	den	.	4dd	wäh-	Herz	und	.
.	.	.	.	.	8e-)	.	.	.	.	.	.	.	.	.	8cc	-len	er-	den	.
=	=	=	=	=	=	=	=	=	=	=	=	=	=	=	=	=	=	=	=
4.BB-	will.	-klingt.	Wind.	.	4.d	will.	-klingt.	Wind.	.	4.b-	will.	-klingt.	Wind.	.	4.b-	will.	-klingt.	Wind.	.
4r	.	.	.	.	4r	.	.	.	.	4r	.	.	.	.	4r	.	.	.	.
8B-	Wenn’s	O	Die	pp	8d-X	Wenn’s	O	Die	pp	8f	Wenn’s	O	Die	pp	8b-	Wenn’s	O	Die	pp
=	=	=	=	=	=	=	=	=	=	=	=	=	=	=	=	=	=	=	=
4B-	kaum	Lust,	Wol-	.	4d-X	kaum	Lust,	Wol-	.	4f	kaum	Lust,	Wol-	.	4b-	kaum	Lust,	Wol-	.
8B-	im	vom	-ken	.	8d-	im	vom	-ken	.	8f	im	vom	-ken	.	8b-	im	vom	-ken	.
4B-	O-	Berg	zieh’n	.	4d-	O-	Berg	zieh’n	.	4f	O-	Berg	zieh’n	.	4b-	O-	Berg	zieh’n	.
8B-	-sten	zu	her-	.	8d-	-sten	zu	her-	.	8f	-sten	zu	her-	.	8b-	-sten	zu	her-	.
=	=	=	=	=	=	=	=	=	=	=	=	=	=	=	=	=	=	=	=
4.A-X	glüh-	schau-	-nie-	.	4.B-	glüh-	schau-	-nie-	.	4.f	glüh-	schau-	-nie-	.	4.dd-X	glüh-	schau-	-nie-	.
4A-	-te,	-en	-der,	.	(8B-L	-te,	-en	-der,	.	4f	-te,	-en	-der,	.	(8dd-L	-te,	-en	-der,	.
.	.	.	.	.	8cJ)	.	.	.	.	.	.	.	.	.	8ccJ)	.	.	.	.
8A-	die	weit	das	.	8d-X	die	weit	das	.	8f	die	weit	das	.	8b-	die	weit	das	.
=	=	=	=	=	=	=	=	=	=	=	=	=	=	=	=	=	=	=	=
4A-	Welt	ü-	Vög-	.	4d-X	Welt	ü-	Vög-	.	4en	Welt	ü-	Vög-	.	4b-	Welt	ü-	Vög-	.
8A-	noch	-ber	-lein	<	8d-	noch	-ber	-lein	<	8e	noch	-ber	-lein	<	8b-	noch	-ber	-lein	<
4A-	still	Wald	senkt	.	4d-	still	Wald	senkt	.	4e	still	Wald	senkt	.	4b-	still	Wald	senkt	.
8A-	und	und	sich	[[	8d-	und	und	sich	[[	8e	und	und	sich	[[	8b-	und	und	sich	[[
=	=	=	=	=	=	=	=	=	=	=	=	=	=	=	=	=	=	=	=
[4.G	weit,	Strom,	gleich.	sf	[4.d-X	weit,	Strom,	gleich.	sf	[4.e-	weit,	Strom,	gleich.	sf	[4.ee-	weit,	Strom,	gleich.	sf
8G]	.	.	.	.	8d-]	.	.	.	.	8e-]	.	.	.	.	8ee-]	.	.	.	.
8r	.	.	.	.	8r	.	.	.	.	8r	.	.	.	.	8r	.	.	.	.
8G	da	hoch	Ge-	pp	8d-	da	hoch	Ge-	pp	8e-	da	hoch	Ge-	pp	8b-	da	hoch	Ge-	pp
=	=	=	=	=	=	=	=	=	=	=	=	=	=	=	=	=	=	=	=
4A-	weht	ü-	-dan-	.	4c	weht	ü-	-dan-	.	4e-	weht	ü-	-dan-	.	4cc	weht	ü-	-dan-	.
8A-	recht	-ber	-ken	.	8c	recht	-ber	-ken	.	8e-	recht	-ber	-ken	.	8cc	recht	-ber	-ken	.
4A-	durch’s	sich	geh’n	.	4c	durch’s	sich	geh’n	.	4e-	durch’s	sich	geh’n	.	4cc	durch’s	sich	geh’n	.
8A-	Ge-	den	und	.	8c	Ge-	den	und	.	8e-	Ge-	den	und	.	8cc	Ge-	den	und	.
=	=	=	=	=	=	=	=	=	=	=	=	=	=	=	=	=	=	=	=
4.A-	-mü-	blau-	Lie-	.	4.c	-mü-	blau-	Lie-	.	4.e-	-mü-	blau-	Lie-	.	4.ee-	-mü-	blau-	Lie-	.
4A-	-te	-en,	-der	<	4c	-te	-en,	-der	<	4f	-te	-en,	-der	<	(8ee-L	-te	-en,	-der	<
.	.	.	.	.	.	.	.	.	.	.	.	.	.	.	8dd-XJ)	.	.	.	.
8A-	die	den	bis	.	8c	die	den	bis	.	8f	die	den	bis	.	8cc	die	den	bis	.
=	=	=	=	=	=	=	=	=	=	=	=	=	=	=	=	=	=	=	=
4G	schö-	kla-	in	.	4en	schö-	kla-	in	.	4b-	schö-	kla-	in	.	4cc	schö-	kla-	in	.
8G	-ne	-ren	das	.	8e	-ne	-ren	das	.	8b-	-ne	-ren	das	.	8cc	-ne	-ren	das	.
4G	Blü-	Him-	Him-	.	4e	Blü-	Him-	Him-	.	4b-	Blü-	Him-	Him-	.	4cc	Blü-	Him-	Him-	.
8G	-ten-	-mels-	-mel-	.	8e	-ten-	-mels-	-mel-	.	8b-	-ten-	-mels-	-mel-	.	8cc	-ten-	-mels-	-mel-	.
=	=	=	=	=	=	=	=	=	=	=	=	=	=	=	=	=	=	=	=
[4.F	-zeit,	-dom.	-reich,	f	[4.f	-zeit,	-dom.	-reich,	f	[4.a-	-zeit,	-dom.	-reich,	f	4.aa-	-zeit,	-dom.	-reich,	f
4F]	.	.	.	.	4f]	.	.	.	.	4a-]	.	.	.	.	4.ff	da	hoch	Ge-	.
8r	.	.	.	.	8r	.	.	.	.	8r	.	.	.	.	.	.	.	.	.
=	=	=	=	=	=	=	=	=	=	=	=	=	=	=	=	=	=	=	=
4r	.	.	.	.	4r	.	.	.	.	4r	.	.	.	.	4ee-	weht	ü-	-dan-	.
8r	.	.	.	.	8r	.	.	.	.	8r	.	.	.	.	8dd	recht	-ber	-ken	.
4.F	.	.	.	.	4.d	da	hoch	Ge-	.	4.a-	da	hoch	Ge-	.	4cc	durch’s	sich	geh’n	.
.	.	.	.	.	.	.	.	.	.	.	.	.	.	.	8b-	Ge-	den	und	.
=	=	=	=	=	=	=	=	=	=	=	=	=	=	=	=	=	=	=	=
*	*	*	*	*	*	*	*	*	*	*	*	*	*	*	*^	*	*	*	*
4E-	.	.	.	.	4e-	weht	ü-	-dan-	.	4a-	weht	ü-	-dan-	.	4.b-	4b-	-müt	blau-	Lie-	.
8D	.	.	.	.	8f	recht	-ber	-ken	.	8f	recht	-ber	-ken	.	.	8b-	.	-en,	-der	.
4C	.	.	.	.	4e-	durch’s	sich	geh’n	.	4a-	durch’s	sich	geh’n	.	4.ff	4.ryy	die	den	bis	.
8BB-	Ge-	den	und	.	8d	Ge-	den	und	.	8f	Ge-	den	und	.	.	.	.	.	.	.
*	*	*	*	*	*	*	*	*	*	*	*	*	*	*	*v	*v	*	*	*	*
=	=	=	=	=	=	=	=	=	=	=	=	=	=	=	=	=	=	=	=
*^	*	*	*	*	*	*	*	*	*	*	*	*	*	*	*	*	*	*	*
4.BB-	4BB-	-müt	blau-	Lie-	.	(4c	-mü-	blau-	Lie-	.	[2.a-	-mü-	blau-	Lie-	.	4ee-	schö-	kla-	in	.
.	8BB-	.	-en,	-der	.	8B-	.	.	.	.	.	.	.	.	.	8dd	-ne	-ren	das	.
*v	*v	*	*	*	*	*	*	*	*	*	*	*	*	*	*	*	*	*	*	*
4.F	die	den	bis	.	4e-	.	.	.	.	.	.	.	.	.	4cc	Blü-	Him-	Him-	.
.	.	.	.	.	8d	.	.	.	.	.	.	.	.	.	8b-	-ten-	-mels-	-mel-	.
=	=	=	=	=	=	=	=	=	=	=	=	=	=	=	=	=	=	=	=
4E-	schö-	kla-	in	.	4g	.	.	.	.	4.a-]	.	.	.	.	4.b-	-zeit,	-dom,	-reich,	.
8D	-ne	-ren	das	.	8f)	.	.	.	.	.	.	.	.	.	.	.	.	.	.
4C	Blü-	Him-	Him-	>	4e-	-te	-en,	-der	.	4a-	-te	-en,	-der	.	4r	.	.	.	.
8BB-	-ten-	-mels-	-mel-	.	8d	die	den	sie	p	8a-	die	den	sie	p	8b-	die	den	sie	p
=	=	=	=	=	=	=	=	=	=	=	=	=	=	=	=	=	=	=	=
4.C	-zeit,	-dom,	-reich,	.	4.e-	schö-	blau-	geh’n	.	4.g	schö-	blau-	geh’n	.	4.ee-	schö-	blau-	geh’n	.
4.D	die	den	bis	p	4.f	-ne,	-en,	bis	.	4.b-	-ne,	-en,	bis	.	4.b-	-ne,	-en,	bis	.
=	=	=	=	=	=	=	=	=	=	=	=	=	=	=	=	=	=	=	=
4.E-	schö-	kla-	in	.	[4.B-	schö-	kla-	in	.	4.g	schö-	kla-	in	.	[4.b-	schö-	kla-	in	.
4.GG	-ne	-ren	das	.	4B-]	.	.	.	.	4.e-	-ne	-ren	das	.	(8b-L]	.	.	.	.
.	.	.	.	.	.	.	.	.	.	.	.	.	.	.	8gJ)	.	.	.	.
.	.	.	.	.	8B-	-ne	-ren	das	.	.	.	.	.	.	8f	-ne	-ren	das	.
=	=	=	=	=	=	=	=	=	=	=	=	=	=	=	=	=	=	=	=
4.BB-	Blü-	Him-	Him-	.	4.G	Blü-	Him-	Him-	.	4.B-	Blü-	Him-	Him-	.	4.e-	Blü-	Him-	Him-	.
4.BB-	-ten-	-mels-	-mel-	.	4.F	-ten-	-mels-	-mel-	.	4.d	-ten-	-mels-	-mel-	.	(4a-	-ten-	mels-	-mel-	.
.	.	.	.	.	.	.	.	.	.	.	.	.	.	.	8g)	.	.	.	.
=	=	=	=	=	=	=	=	=	=	=	=	=	=	=	=	=	=	=	=
4.E-	-zeit,	-dom,	-reich,	.	4.G	-zeit,	-dom,	-reich,	.	4.e-	-zeit,	-dom,	-reich,	.	4.g	-zeit,	-dom,	-reich,	.
4r	.	.	.	.	4r	.	.	.	.	4r	.	.	.	.	4r	.	.	.	.
8E-	die	den	sie	f	8e-	die	den	sie	f	8g	die	den	sie	f	8b-	die	den	sie	f
=	=	=	=	=	=	=	=	=	=	=	=	=	=	=	=	=	=	=	=
4.E-	schö-	blau-	geh’n	.	4.e-	schö-	blau-	geh’n	.	4.b-	schö-	blau-	geh’n	.	4.gg	schö-	blau-	geh’n	.
4.G	-ne,	-en,	bis	.	4.B-	-ne,	-en,	bis	.	4.g	-ne,	-en,	bis	.	4.ee-	-ne,	-en,	bis	.
=	=	=	=	=	=	=	=	=	=	=	=	=	=	=	=	=	=	=	=
4.A-	schö-	kla-	-in	.	[4.c	schö-	kla-	-in	.	[4.f#X	schö-	kla-	-in	.	[4.ee-	schö-	kla-	-in	.
4.An	-ne	-ren	das	.	(8cL]	.	.	.	.	4f#]	.	.	.	.	(8ee-L]	.	.	.	.
.	.	.	.	.	8dJ)	.	.	.	.	.	.	.	.	.	8ddJ)	.	.	.	.
.	.	.	.	.	8e-	-ne	-ren	das	.	8f#	-ne	-ren	das	.	8cc	-ne	-ren	das	.
=	=	=	=	=	=	=	=	=	=	=	=	=	=	=	=	=	=	=	=
2.B-	Blü-	Him-	Him-	.	(4.e-	Blü-	Him-	Him-	.	2.g	Blü-	Him-	Him-	.	(4.b-	Blü-	Him-	Him-	.
.	.	.	.	.	4.en)	.	.	.	.	.	.	.	.	.	[4.bb-)	.	.	.	.
=	=	=	=	=	=	=	=	=	=	=	=	=	=	=	=	=	=	=	=
2.BB-	-ten-	-mels-	-mel-	.	2.f	-ten-	-mels-	-mel-	.	2.a-	-ten-	-mels-	-mel-	.	4.bb-]	.	.	.	.
.	.	.	.	.	.	.	.	.	.	.	.	.	.	.	4.dd	-ten-	-mels-	-mel-	.
=	=	=	=	=	=	=	=	=	=	=	=	=	=	=	=	=	=	=	=
2.E-;	-zeit!	-dom.	-reich.	.	2.e-X;	-zeit!	-dom.	-reich.	.	2.g;	-zeit!	-dom.	-reich.	.	2.ee-;	-zeit!	-dom.	-reich.	.
==	==	==	==	==	==	==	==	==	==	==	==	==	==	==	==	==	==	==	==
*-	*-	*-	*-	*-	*-	*-	*-	*-	*-	*-	*-	*-	*-	*-	*-	*-	*-	*-	*-
!!!system-decoration: ([s1,s2,s3,s4])
!!!RDF**kern: i = editorial accidental
!!!AGN: Choral
!!!YOR: https://mdz-nbn-resolving.de/details:bsb00026635
!!!YOO: München, Bayerische Staatsbibliothek
!!!URL-scan: https://www.digitale-sammlungen.de/de/view/bsb00026635?page=8
!!!EED: Wolfgang Drescher
!!!END: 2024/11/15
!!!ENC: Wolfgang Drescher
!!!EEV: 2024/11/15
!!!title: @{OPS} @{ONM}. @{OTL}